!!!OTL: 700. Der Kalender der Liebe.
!!!ARE: Europa, Mitteleuropa, Deutschland
!!!SCT: B0700
!!!TXL: @@DE
!!!YEM: Copyright 1995, estate of Helmut Schaffrath.
**kern	**text
*ICvox	*
*Ivox	*
*clefG2	*
*M2/4	*
*k[f#]	*
*G:	*
!LO:TX:a:t=Luſtig.	!
{8b	Jm
=1	=1
8b	Ja-
8d	-nu-
8d	-ar
8b	da
=2	=2
8b	füh-
8d	-ren
8d}	uns
{8b	die
=3	=3
8b	Männer
8b	.
8cc	auf
8b	das
=4	=4
4a	Eis;
8r}	.
{8a	dem
=5	=5
8a	Schnee
8g	ſind
8f#	ih-
8e	-re
=6	=6
8b	Wor-
8a	-te
8a}	gleich,
{8a	ſie
=7	=7
8a	ma-
8g	-chen
8f#	uns
8e	viel
=8	=8
4d	weiß.
8r}	.
{8d	Jm
=9	=9
8d	Fe-
8d	-bru-
8e	-ar
8f#	mas-
=10	=10
8a	-kirn
8g	ſie
8g}	ſich,
{8b	das
=11	=11
8dd	dau-
8dd	-ert
8cc	bis
8a	ʒum
=12	=12
4.dd;}	Märʒ,
{8dd	dann
=13	=13
8dd	löſt
8cc	die
8e	har-
8cc	-te
=14	=14
8cc	Rin-
8b	-de
8d}	ſich
{8b	all-
=15	=15
8b	-mäh-
8a	-lich
8b	von
8cc	dem
=16	=16
4.dd}	Herʒ,
{8dd	dann
=17	=17
8dd	löſt
8cc	die
8e	har-
8cc	-te
=18	=18
8cc	Rin-
8b	-de
8d}	ſich
{8b	all-
=19	=19
8b	-mäh-
8a	-lich
8e	von
8f#	dem
=20	=20
4g	Herʒ.
8r}	.
==	==
!!!AGN: Scherz - Lied
!!!GTL: Scherzlieder und Gemischtes
!!!ONB: ESAC (Essen Associative Code) Database: BOEHME
!!!AMT: simple duple
!!!AIN: vox
!!!EED: Helmut Schaffrath
!!!EEV: 1.0
!!@@COMMENT:"Um 1840 mir bekannt, auch bei Fink, "Hausſchatʒ" 1842. Damals und ſpäter beliebtes
!!Couplet, auf Theatern geſungen. Die Mel. wurde vielfach andern Texten angepaßt, ſogar dem:
!!"Da ſtreiten ſich die Leut herum". Es ſoll aus der Oper "Talisman" ſtammen. Hoffmann
!!fragt: ob aus der von Salieri 1788 komponirten Talismano, die ins Franʒöſiſche und Deutſche
!!überſetʒt ward? - Jch glaube dreiſt dies verneinen ʒu dürfen; denn weder die Muſik paßt ʒu
!!jener Ʒeit, noch hatte ein Couplet dort Platʒ. Mit mehr Wahrſcheinlichkeit könnte es aus dem
!!Liederſpiele "Talisman" 1790 ſein. Doch ſcheint mir die Entſtehung des Couplets einer viel
!!ſpäteren Ʒeit (kurʒ vor 1840) anʒugehören."
!!@@END:
!!!URL-scan: https://archive.org/details/BoehmeVtLieder1895/page/n549/mode/2up
!!!ENC: Anna Maria Matuszewska
!!!EEV: 2024/17/07
*-	*-
